wp-content/themes/blackfoot/assets/img/icon-phone-dark.svg

<?xml version="1.0" encoding="UTF-8" standalone="no"?>
<svg width="10px" height="22px" viewBox="0 0 10 22" version="1.1" xmlns="http://www.w3.org/2000/svg" xmlns:xlink="http://www.w3.org/1999/xlink" xmlns:sketch="http://www.bohemiancoding.com/sketch/ns">
    <!-- Generator: Sketch 3.3.1 (12002) - http://www.bohemiancoding.com/sketch -->
    <title>Imported Layers Copy 3</title>
    <desc>Created with Sketch.</desc>
    <defs></defs>
    <g id="Fishing-Report" stroke="none" stroke-width="1" fill="none" fill-rule="evenodd" sketch:type="MSPage">
        <g id="Fishing-Report-(Alert)" sketch:type="MSArtboardGroup" transform="translate(-1366.000000, -21.000000)" fill="#665F5A">
            <g id="HEADER-(basic)" sketch:type="MSLayerGroup" transform="translate(-31.000000, -19.000000)">
                <g id="PHONE" transform="translate(1397.000000, 40.000000)" sketch:type="MSShapeGroup">
                    <path d="M7.40649377,3.17172812 L7.40649377,1.26585106 C7.40649377,0.841972798 7.0634709,0.5 6.64099273,0.5 C6.21711447,0.5 5.87514168,0.843022868 5.87514168,1.26585106 L5.87514168,3.11012401 L2.30000333,3.11012401 C1.02976865,3.11012401 0,4.13954264 0,5.40837723 L0,19.2017468 C0,20.4719815 1.02976865,21.5 2.30000333,21.5 L6.89790986,21.5 C8.16814454,21.5 9.19791319,20.4705814 9.19791319,19.2017468 L9.19791319,5.40837723 C9.19511301,4.3145543 8.42926195,3.40414361 7.40649377,3.17172812 L7.40649377,3.17172812 Z M3.06410427,19.1236916 C3.06410427,19.3354557 2.89329289,19.5066171 2.68117875,19.5066171 L1.91567771,19.5066171 C1.70356357,19.5066171 1.53275218,19.3354557 1.53275218,19.1236916 L1.53275218,18.3581905 C1.53275218,18.1460764 1.70356357,17.975265 1.91567771,17.975265 L2.68117875,17.975265 C2.89329289,17.975265 3.06410427,18.1460764 3.06410427,18.3581905 L3.06410427,19.1236916 Z M3.06410427,16.6735282 C3.06410427,16.8852924 2.89329289,17.0564538 2.68117875,17.0564538 L1.91567771,17.0564538 C1.70356357,17.0564538 1.53275218,16.8842423 1.53275218,16.6735282 L1.53275218,15.9080272 C1.53275218,15.694513 1.70356357,15.5251017 1.91567771,15.5251017 L2.68117875,15.5251017 C2.89329289,15.5251017 3.06410427,15.6959131 3.06410427,15.9080272 L3.06410427,16.6735282 Z M3.06410427,14.2219648 C3.06410427,14.4340789 2.89329289,14.6048903 2.68117875,14.6048903 L1.91567771,14.6048903 C1.70356357,14.6048903 1.53275218,14.4340789 1.53275218,14.2219648 L1.53275218,13.4550637 C1.53275218,13.2429495 1.70356357,13.0721381 1.91567771,13.0721381 L2.68117875,13.0721381 C2.89329289,13.0721381 3.06410427,13.2429495 3.06410427,13.4550637 L3.06410427,14.2219648 Z M5.36270751,19.1236916 C5.36270751,19.3354557 5.1915461,19.5066171 4.97978199,19.5066171 L4.21253084,19.5066171 C4.00076672,19.5066171 3.82995533,19.3354557 3.82995533,19.1236916 L3.82995533,18.3581905 C3.82995533,18.1460764 4.00076672,17.975265 4.21253084,17.975265 L4.97978199,17.975265 C5.1915461,17.975265 5.36270751,18.1460764 5.36270751,18.3581905 L5.36270751,19.1236916 Z M5.36270751,16.6735282 C5.36270751,16.8852924 5.1915461,17.0564538 4.97978199,17.0564538 L4.21253084,17.0564538 C4.00076672,17.0564538 3.82995533,16.8842423 3.82995533,16.6735282 L3.82995533,15.9080272 C3.82995533,15.694513 4.00076672,15.5251017 4.21253084,15.5251017 L4.97978199,15.5251017 C5.1915461,15.5251017 5.36270751,15.6959131 5.36270751,15.9080272 L5.36270751,16.6735282 Z M5.36270751,14.2219648 C5.36270751,14.4340789 5.1915461,14.6048903 4.97978199,14.6048903 L4.21253084,14.6048903 C4.00076672,14.6048903 3.82995533,14.4340789 3.82995533,14.2219648 L3.82995533,13.4550637 C3.82995533,13.2429495 4.00076672,13.0721381 4.21253084,13.0721381 L4.97978199,13.0721381 C5.1915461,13.0721381 5.36270751,13.2429495 5.36270751,13.4550637 L5.36270751,14.2219648 Z M7.66236082,19.1236916 C7.66236082,19.3354557 7.49154944,19.5066171 7.2794353,19.5066171 L6.51393426,19.5066171 C6.30182012,19.5066171 6.13100873,19.3354557 6.13100873,19.1236916 L6.13100873,18.3581905 C6.13100873,18.1460764 6.30182012,17.975265 6.51393426,17.975265 L7.2794353,17.975265 C7.49154944,17.975265 7.66236082,18.1460764 7.66236082,18.3581905 L7.66236082,19.1236916 Z M7.66236082,16.6735282 C7.66236082,16.8852924 7.49154944,17.0564538 7.2794353,17.0564538 L6.51393426,17.0564538 C6.30182012,17.0564538 6.13100873,16.8842423 6.13100873,16.6735282 L6.13100873,15.9080272 C6.13100873,15.694513 6.30182012,15.5251017 6.51393426,15.5251017 L7.2794353,15.5251017 C7.49154944,15.5251017 7.66236082,15.6959131 7.66236082,15.9080272 L7.66236082,16.6735282 Z M7.66236082,14.2219648 C7.66236082,14.4340789 7.49154944,14.6048903 7.2794353,14.6048903 L6.51393426,14.6048903 C6.30182012,14.6048903 6.13100873,14.4340789 6.13100873,14.2219648 L6.13100873,13.4550637 C6.13100873,13.2429495 6.30182012,13.0721381 6.51393426,13.0721381 L7.2794353,13.0721381 C7.49154944,13.0721381 7.66236082,13.2429495 7.66236082,13.4550637 L7.66236082,14.2219648 Z M7.66236082,10.5467198 C7.66236082,10.970598 7.31898793,11.3125708 6.89650977,11.3125708 L2.29860324,11.3125708 C1.87472498,11.3125708 1.53275218,10.9691979 1.53275218,10.5467198 L1.53275218,5.94846323 C1.53275218,5.52458497 1.87612508,5.1829622 2.29860324,5.1829622 L6.89650977,5.1829622 C7.32038803,5.1829622 7.66236082,5.52598507 7.66236082,5.94846323 L7.66236082,10.5467198 Z" id="Imported-Layers-Copy-3"></path>
                </g>
            </g>
        </g>
    </g>
</svg>

<svg xmlns="http://www.w3.org/2000/svg" width="10" height="22"><title>Imported Layers Copy 3</title><desc>Created with Sketch.</desc><g fill="none"><g fill="#665F5A"><g><g><path d="M7.4 3.17v-1.9C7.4.84 7.07.5 6.65.5s-.76.34-.76.77V3.1H2.3C1.03 3.1 0 4.15 0 5.4v13.8c0 1.27 1.03 2.3 2.3 2.3h4.6c1.27 0 2.3-1.03 2.3-2.3V5.4c0-1.1-.77-2-1.8-2.23zM3.07 19.12c0 .22-.17.4-.38.4h-.76c-.22 0-.4-.18-.4-.4v-.76c0-.2.18-.38.4-.38h.76c.2 0 .38.17.38.38v.76zm0-2.45c0 .22-.17.4-.38.4h-.76c-.22 0-.4-.2-.4-.4v-.76c0-.2.18-.37.4-.37h.76c.2 0 .38.17.38.38v.77zm0-2.45c0 .2-.17.38-.38.38h-.76c-.22 0-.4-.17-.4-.38v-.76c0-.22.18-.4.4-.4h.76c.2 0 .38.18.38.4v.76zm2.3 4.9c0 .22-.17.4-.38.4H4.2c-.2 0-.37-.18-.37-.4v-.76c0-.2.17-.38.38-.38H5c.2 0 .38.17.38.38v.76zm0-2.45c0 .22-.17.4-.38.4H4.2c-.2 0-.37-.2-.37-.4v-.76c0-.2.17-.37.38-.37H5c.2 0 .38.17.38.38v.77zm0-2.45c0 .2-.17.38-.38.38H4.2c-.2 0-.37-.17-.37-.38v-.76c0-.22.17-.4.38-.4H5c.2 0 .38.18.38.4v.76zm2.3 4.9c0 .22-.17.4-.38.4H6.5c-.2 0-.37-.18-.37-.4v-.76c0-.2.17-.38.38-.38h.78c.2 0 .38.17.38.38v.76zm0-2.45c0 .22-.17.4-.38.4H6.5c-.2 0-.37-.2-.37-.4v-.76c0-.2.17-.37.38-.37h.78c.2 0 .38.17.38.38v.77zm0-2.45c0 .2-.17.38-.38.38H6.5c-.2 0-.37-.17-.37-.38v-.76c0-.22.17-.4.38-.4h.78c.2 0 .38.18.38.4v.76zm0-3.67c0 .42-.34.76-.76.76H2.3c-.43 0-.77-.33-.77-.75v-4.6c0-.43.35-.77.77-.77h4.6c.42 0 .76.35.76.77v4.6z"/></g></g></g></g></svg>
